X: 109
T:Mill Mill O,Duet,Primo JMT.105
M:4/4
L:1/8
Q:180
S:J.Moore,Tyneside,1841.(74)
R:Air
O:England
A:Northumbria
Z:vmp.Chris Partington
K:D
d>e|f2A>BA3d|B>ABd{f}e2d>e|{de}f2A2gfed|B3cd2:|!
c>A|(defg)a3a|bagfe3A|(defg) a>bag|{g}f2fg"pause"a2zA|!
defga3g/a/|bagf{f}e2d>e|f2A2A2{g}f/e/d|B3c"pause"d2:|]
